X:1     %Music
T:Venus and Adonis
B:Broadwood, L, 1893, English County Songs, London, Leadenhall Press
S:From Mr Grantham
Z:Lucy Broadwood
F:http://www.folkinfo.org/songs
M:4/4     %Meter
L:1/8     %
K:Eb
CB, |E2 F2 G2 cc |B3/2c/ BA GF
w:As *I rode o-ver *yon-der for-est green_ 
w:There *I saw Ve-nus, that most_ love-ly queen_
 GF |E2 F2 Gc BA |    G2 F2 E2 :|
w:(With my hey down der-ry, with my hey down dey) 
B2 |E2 D2 CD EG |FE DC B,2 
w:It was fair Ve--nus whom there I did es-py 
E3/2F/ |GE FG A4 |B4 HF2 GB |c2 GB Hed (3:2cBA |G2 F2 E2 |]
w:As_ she_ lay a-sleep, sleep, sleep, As_ she lay a-sleep-_ ing__ all a-lone.